!!!!SEGMENT: pl-kk--kk-i-271--002_anonim--tolite-portas-principes.krn
!!!cenid: 16xx:724
!!!COM: Anonim
!!!COM-rismid: pe30004985
!!!CDT:
!!!CNT:
!!!OTL: Tollite portas principes
!!!PDT:
!!!AGN: Sacred
!!!SMS-siglum: PL-Kk
!!!SMS-shelfmark: Kk.I.271
!!!SMS-shelfwork: 002 W
!!!SMS-variant:
!!!SMS-altvar:
!!!NIFC-rismid: 1001138969
!!!URL-scan: http://repozytorium.nifc.pl/skany/pl-kk-nut--i-271
!!!ONB-nifc: UWAGA: utwory w zbiorze: 1. Rorate caeli, 2. Tollite portas principes
**kern	**text	**kern	**text	**kern	**text	**kern	**text
*part4	*part4	*part3	*part3	*part2	*part2	*part1	*part1
*staff4	*staff4	*staff3	*staff3	*staff2	*staff2	*staff1	*staff1
*I"Baſso	*	*I"Tenore Secundo	*	*I"Tenore Primo.	*	*I"Alto.	*
*I'B	*	*I'T 2	*	*I'T.	*	*I'A	*
*clefF4	*	*clefC4	*	*clefC4	*	*clefC3	*
*k[]	*	*k[]	*	*k[]	*	*k[]	*
*C:	*	*C:	*	*C:	*	*C:	*
*M2/2	*	*M2/2	*	*M2/2	*	*M2/2	*
*met(c|)	*	*met(c|)	*	*met(c|)	*	*met(c|)	*
=1	=1	=1	=1	=1	=1	=1	=1
!LO:TX:t=P:problem:oznaczenie metryczne Z przekreślone	!	!LO:TX:t=P:problem:oznaczenie metryczne Z przekreślone	!	!LO:TX:t=P:problem:oznaczenie metryczne Z przekreślone	!	!LO:TX:t=P:problem:oznaczenie metryczne Z przekreślone	!
2r	.	00r	.	1c	To-	00r	.
2C/	Tol-	.	.	.	.	.	.
=2	=2	=2	=2	=2	=2	=2	=2
*	*	*	*	*2\right	*	*	*
1D	.	.	.	2c\	.	.	.
.	.	.	.	2B\	.	.	.
=3	=3	=3	=3	=3	=3	=3	=3
1E	.	.	.	4c\	.	.	.
.	.	.	.	4G\	.	.	.
.	.	.	.	4c\	.	.	.
.	.	.	.	4B\	.	.	.
=4	=4	=4	=4	=4	=4	=4	=4
1F	.	.	.	4A\	.	.	.
.	.	.	.	8B\L	.	.	.
.	.	.	.	8c\J	.	.	.
.	.	.	.	4d\	.	.	.
.	.	.	.	4c\	.	.	.
=5	=5	=5	=5	=5	=5	=5	=5
1G	.	00r	.	4B\	.	00r	.
.	.	.	.	8c\L	.	.	.
.	.	.	.	8d\J	.	.	.
.	.	.	.	4e\	.	.	.
.	.	.	.	4d\	.	.	.
=6	=6	=6	=6	=6	=6	=6	=6
*2\right	*	*	*	*	*	*	*
2.A\	.	.	.	1c	.	.	.
4G\	.	.	.	.	.	.	.
=7	=7	=7	=7	=7	=7	=7	=7
2F#X\	.	.	.	2c\	.	.	.
2G\	.	.	.	2B\	.	.	.
=8	=8	=8	=8	=8	=8	=8	=8
2G\	.	.	.	2.A\	.	.	.
2F#X\	li-	.	.	.	.	.	.
.	.	.	.	4A\	-lli-	.	.
=9	=9	=9	=9	=9	=9	=9	=9
2G\	-te	00r	.	2G\	-te	1g	to-
2r	.	.	.	2G\	to-	.	.
!LO:PB:g=original	!	!	!	!	!	!	!
=10	=10	=10	=10	=10	=10	=10	=10
*	*	*	*	*	*	*2\right	*
2C\	tol-	.	.	1A	.	2g\	.
2D\	.	.	.	.	.	2f#X\	.
=11	=11	=11	=11	=11	=11	=11	=11
1D	.	.	.	1B	.	4g\	.
.	.	.	.	.	.	4d\	.
.	.	.	.	.	.	4g\	.
.	.	.	.	.	.	4f\	.
=12	=12	=12	=12	=12	=12	=12	=12
1E	.	.	.	1c	.	4e\	.
.	.	.	.	.	.	8f\L	.
.	.	.	.	.	.	8g\J	.
.	.	.	.	.	.	4a\	.
.	.	.	.	.	.	4g\	.
=13	=13	=13	=13	=13	=13	=13	=13
1F#X	.	00r	.	1d	.	4f#X\	.
.	.	.	.	.	.	8g\L	.
.	.	.	.	.	.	8a\J	.
.	.	.	.	.	.	4b\	.
.	.	.	.	.	.	4a\	.
!	!	!	!	!LO:LB:g=original	!	!	!
=14	=14	=14	=14	=14	=14	=14	=14
[<1G	.	.	.	2.e\	.	4g\	.
.	.	.	.	.	.	8a\L	.
.	.	.	.	.	.	8b\J	.
.	.	.	.	.	.	4cc\	.
.	.	.	.	4d\	.	4b\	.
=15	=15	=15	=15	=15	=15	=15	=15
2G\]	.	.	.	2.c\	.	2.a\	.
2F#X\	.	.	.	.	.	.	.
.	.	.	.	4c\	lli-	4a\	-lli-
=16	=16	=16	=16	=16	=16	=16	=16
1G	.	.	.	2B\	-te	2g\	-te
.	.	.	.	2B\	to-	2g\	to-
=17	=17	=17	=17	=17	=17	=17	=17
1A	.	0r	.	2c\	.	2g\	.
.	.	.	.	2d\	.	2fn\	.
!	!	!	!	!	!	!LO:LB:g=original	!
=18	=18	=18	=18	=18	=18	=18	=18
2B\	.	.	.	2d\	.	2f\	.
2c\	.	.	.	2e\	.	2e\	.
=19	=19	=19	=19	=19	=19	=19	=19
4Fn\	.	1r	.	2c\	.	2.d\	.
4D\	.	.	.	.	.	.	.
4G\	.	.	.	2B\	-lli-	.	.
4GG/	-li-	.	.	.	.	4d\	-lli-
!LO:LB:g=original	!	!	!	!	!	!	!
=20	=20	=20	=20	=20	=20	=20	=20
2C/	-te	1c	To-	2c\	-te	2c\	-te
2rC	.	.	.	2E/	to-	2c\	to-
=21	=21	=21-	=21	=21	=21	=21	=21
*	*	*2\right	*	*	*	*	*
00r	.	2c\	.	2F/	.	1d	.
.	.	2B\	.	2G/	.	.	.
=22	=22	=22	=22	=22	=22	=22	=22
.	.	4c\	.	1G	.	1e	.
.	.	4G\	.	.	.	.	.
.	.	4c\	.	.	.	.	.
.	.	4B\	.	.	.	.	.
=23	=23	=23	=23	=23	=23	=23	=23
.	.	4A\	.	1A	.	1f	.
.	.	8B\L	.	.	.	.	.
.	.	8c\J	.	.	.	.	.
.	.	2d\	.	.	.	.	.
=24	=24	=24	=24	=24	=24	=24	=24
.	.	4B\	.	1B	.	1g	.
.	.	8c\L	.	.	.	.	.
.	.	8d\J	.	.	.	.	.
.	.	4e\	.	.	.	.	.
.	.	4d\	.	.	.	.	.
=25	=25	=25	=25	=25	=25	=25	=25
1r	.	1c	.	2c\	.	2.a\	.
.	.	.	.	2e\	.	.	.
.	.	.	.	.	.	4g\	.
=26	=26	=26	=26	=26	=26	=26	=26
4F#X\	tol-	2c\	.	1d	.	2f#X\	.
4D\	.	.	.	.	.	.	.
4G\	.	2B\	.	.	.	2g\	.
4BB/	.	.	.	.	.	.	.
=27	=27	=27	=27	=27	=27	=27	=27
4C/	.	2.A\	.	2.d\	.	2g\	.
4AA/	.	.	.	.	.	.	.
4D/	.	.	.	.	.	2f#X\	-lli-
4D/	li-	4A\	-lli-	4d\	-lli-	.	.
!	!	!	!	!LO:LB:g=original	!	!	!
=28	=28	=28	=28	=28	=28	=28	=28
2GG/	-te	2G\	-te	2B\	-te	2g\	-te
[<2G\	tol-	2B\	to-	2r	.	2r	.
=29	=29	=29	=29	=29	=29	=29	=29
2G\]	.	1A	.	00r	.	2c\	to-
2F#X\	.	.	.	.	.	2d\	.
=30	=30	=30	=30	=30	=30	=30	=30
4G\	.	1B	.	.	.	1d	.
4D\	.	.	.	.	.	.	.
4G\	.	.	.	.	.	.	.
4F\	.	.	.	.	.	.	.
!LO:LB:g=original	!	!LO:LB:g=original	!	!	!	!	!
=31	=31	=31	=31	=31	=31	=31	=31
4E\	.	1c	.	.	.	1e	.
8F#X\L	.	.	.	.	.	.	.
8G\J	.	.	.	.	.	.	.
4A\	.	.	.	.	.	.	.
4G\	.	.	.	.	.	.	.
=32	=32	=32	=32	=32	=32	=32	=32
4F#X\	.	1d	.	.	.	1f#X	.
8G\L	.	.	.	.	.	.	.
8A\J	.	.	.	.	.	.	.
4B\	.	.	.	.	.	.	.
4A\	.	.	.	.	.	.	.
!	!	!	!	!	!	!LO:LB:g=original	!
=33	=33	=33	=33	=33	=33	=33	=33
4G\	.	2.e\	.	00r	.	[y1g	.
8A\L	.	.	.	.	.	.	.
8B\J	.	.	.	.	.	.	.
4c\	.	.	.	.	.	.	.
4B\	.	4d\	.	.	.	.	.
=34	=34	=34	=34	=34	=34	=34	=34
!	!	!	!	!	!	!LO:N:xstem:cue:vis=4	!
1A	.	1c	.	.	.	2g\]	.
.	.	.	.	.	.	2f#X\	.
=35	=35	=35	=35	=35	=35	=35	=35
1G	.	1B	.	.	.	1g	.
=36	=36	=36	=36	=36	=36	=36	=36
2G\	.	2c\	.	.	.	1a	.
[<2Fn\	.	2d\	.	.	.	.	.
=37	=37	=37	=37	=37	=37	=37	=37
2F\]	.	2d\	.	0r	.	2b\	.
2E\	.	2e\	.	.	.	2cc\	.
!LO:LB:g=original	!	!	!	!	!	!	!
=38	=38	=38	=38	=38	=38	=38	=38
!	!	!	!	!	!	!LO:TX:t=P:problem:♮ above	!
2.D\	.	2c\	.	.	.	4fn\	.
.	.	.	.	.	.	4d\	.
.	.	2B\	-lli-	.	.	2g\	-lli-
4D\	-li-	.	.	.	.	.	.
=39	=39	=39	=39	=39-	=39	=39	=39
2C/	-te	2c\	-te	1e	Po-	2g\	-te
2C/	.	[y2c\	por-	.	.	[y2g\	Por-
=40	=40	=40	=40	=40	=40	=40	=40
!	!	!LO:N:xstem:cue:vis=4	!	!	!	!LO:N:xstem:cue:vis=4	!
1C	por-	2c\]	.	2e\	.	2g\]	.
.	.	2c\	-tas	2e\	-rtas	2g\	-taſ
=41	=41	=41	=41	=41	=41	=41	=41
2F\	.	4d\	prin-	4d\	Prin-	4a\	prin-
.	.	4d\	-ci-	4d\	-ci-	4a\	-ci-
2E\	-tas	2e\	-pes	2c\	-pes	2g\	-pes
=42	=42	=42	=42	=42	=42	=42	=42
4G\	prin-	2d\	ve-	2B\	ve-	1g	ve-
4F\	-ci-	.	.	.	.	.	.
2E\	-pes	2c\	.	[y2c\	.	.	.
=43	=43	=43	=43	=43	=43	=43	=43
!	!	!	!	!LO:N:xstem:cue:vis=4	!	!	!
2D\	ve-	1d	-s-	2c\]	.	1fn	-s-
2G\	.	.	.	2B\	-s-	.	.
!	!	!LO:LB:g=original	!	!	!	!	!
=44	=44	=44	=44	=44	=44	=44	=44
2C/	-stras	2e\	-traſ	2c\	-tras	2e\	-traſ
2rC	.	2G#X/	et	2e\	et	2e\	et
!	!	!	!	!	!	!LO:LB:g=original	!
=45	=45	=45	=45	=45	=45	=45	=45
0r	.	2A\	e-	2e\	e-	1f#X	e-
.	.	2A\	-le-	2d\	-le-	.	.
=46	=46	=46	=46	=46	=46	=46	=46
.	.	2B\	-va-	2d\	-va-	2g#X\	-le-
.	.	2c\	.	2c\	.	2a\	.
=47	=47	=47	=47	=47	=47	=47	=47
1r	.	2d\	.	2.B\	.	2a\	-va-
.	.	2e\	-mi-	.	.	2g#X\	-mi-
.	.	.	.	4B\	-mi-	.	.
!LO:LB:g=original	!	!	!	!	!	!	!
=48	=48	=48	=48	=48	=48	=48	=48
2r	.	2e\	-ni	2A\	-ni	2a\	-ni
[<2A\	et	2e\	por-	[y2c#X\	Por-	[y2a\	por-
=49	=49	=49	=49	=49	=49	=49	=49
!	!	!	!	!LO:N:xstem:cue:vis=4	!	!LO:N:xstem:cue:vis=4	!
2A\]	e-	2e\	-tae	2c#\]	.	2a\]	.
2G\	-le-	2e\	ae-	2c#X\	-tae	2a\	-ta
!	!	!	!	!LO:LB:g=original	!	!	!
=50	=50	=50	=50	=50	=50	=50	=50
!	!	!LO:TX:t=P:problem:korekta:skreślony takt	!	!	!	!	!
2F\	-va-	2d\	-ter-	2d\	ae-	2a\	ae-
2E\	.	2c#X\	.	2e\	-ter-	2a\	-ter-
=51	=51	=51	=51	=51	=51	=51	=51
2.D\	.	1d	-na-	1f	-na-	1a	-na-
4D\	mi-	.	.	.	.	.	.
=52	=52	=52	=52	=52	=52	=52	=52
!	!	!LO:TX:t=P:problem:korekta:skreślony takt	!	!	!	!LO:TX:a:t=2	!
1AA	-ni	2c#X\	-les	2e\	-les	2a\	-les
.	.	2c#\	et	2A\	et	2a\	et
!	!	!LO:LB:g=original	!	!	!	!	!
=53	=53	=53	=53	=53	=53	=53	=53
!	!	!	!	!	!	!LO:SIC:v:l:s=et	!
!	!	!	!	!	!	!LO:TX:a:t=P:problem:takt zapisany repetycją	!
2D\	por-	2d\	in-	2.d\	in-	2a\yy	les
2D\	-tae	2d\	-tro-	.	.	2a\yy	et
.	.	.	.	4cn\	-tro-	.	.
=54	=54	=54	=54	=54	=54	=54	=54
2.G\	ae-	2d\	-i-	2B-X\	-i-	2.b-X\	in-
.	.	2d\	-bit	2B-\	-bit	.	.
4F\	-ter-	.	.	.	.	4a\	-tro-
=55	=55	=55	=55	=55	=55	=55	=55
*	*	*	*ij	*	*ij	*	*
1E	-na-	2cn\	in-	2.c\	in-	1gn	-i-
.	.	2c\	-tro-	.	.	.	.
.	.	.	.	4B-X\	-tro-	.	.
!LO:LB:g=original	!	!	!	!	!	!	!
=56	=56	=56	=56	=56	=56	=56	=56
2.F\	.	2c\	-i-	2A\	-i-	2.a\	.
.	.	2c\	-bit	2A\	-bit	.	.
*	*	*	*Xij	*	*	*	*
4E\	.	.	.	.	.	4g\	.
!	!	!	!	!	!	!LO:LB:g=original	!
=57	=57	=57	=57	=57	=57	=57	=57
2.D\	.	0r	.	2.f\	in-	2f\	.
.	.	.	.	.	.	2a\	.
4C/	.	.	.	4e\	-tro-	.	.
=58	=58	=58	=58	=58	=58	=58	=58
2BB-X/	.	.	.	2d\	-i-	2f\	.
4AA/	.	.	.	4c\	.	2g\	.
4GG/	.	.	.	4B-X\	.	.	.
=59	=59	=59-	=59	=59	=59	=59	=59
2FF/	.	2r	.	2A\	-bit	2a\	-bit
*	*	*	*	*	*Xij	*	*
2BB-X/	.	2d\	Rex	2B-X\	Rex	4g\	Rex
.	.	.	.	.	.	4f\	.
!	!	!	!	!LO:LB:g=original	!	!	!
=60	=60	=60	=60	=60	=60	=60	=60
1C	.	2.c\	glo-	2.G/	Glo-	2f\	Glo-
.	.	.	.	.	.	2e\	-ri-
.	.	4c\	-ri-	4G/	-ri-	.	.
=61	=61	=61	=61	=61	=61	=61	=61
1FF	-les	1c	-ae	1F	-ae	1f	-ae
=62||	=62||	=62||	=62||	=62||	=62||	=62||	=62||
00r	.	00r	.	2F/	Quiſ	2f\	quiſ
.	.	.	.	2F/	aſ-	2f\	a-
=63	=63	=63	=63	=63	=63	=63	=63
.	.	.	.	2G/	-cen-	2f\	-ſcen-
.	.	.	.	4G/	-det	4e\	-det
.	.	.	.	4G/	in	4e\	in
=64	=64	=64	=64	=64	=64	=64	=64
.	.	.	.	1A	mo-	4f\	mo-
.	.	.	.	.	.	4c\	.
.	.	.	.	.	.	4f\	.
.	.	.	.	.	.	4e\	.
=65	=65	=65	=65	=65	=65	=65	=65
.	.	.	.	1B-X	.	4d\	.
.	.	.	.	.	.	8e\L	.
.	.	.	.	.	.	8f\J	.
!	!	!	!	!	!	!LO:TX:a:t=P:problem:dwie skreślone nuty	!
.	.	.	.	.	.	4g\	.
.	.	.	.	.	.	4f\	.
=66	=66	=66	=66	=66	=66	=66	=66
00r	.	00r	.	1c	.	4e\	.
.	.	.	.	.	.	8f\L	.
.	.	.	.	.	.	8g\J	.
.	.	.	.	.	.	4a\	.
.	.	.	.	.	.	4g\	.
!	!	!	!	!	!	!LO:PB:g=original	!
=67	=67	=67	=67	=67	=67	=67	=67
.	.	.	.	1d	.	4f\	.
.	.	.	.	.	.	8g\L	.
.	.	.	.	.	.	8a\J	.
.	.	.	.	.	.	4b-X\	.
.	.	.	.	.	.	4a\	.
=68	=68	=68	=68	=68	=68	=68	=68
.	.	.	.	2.e\	.	2.g\	.
.	.	.	.	4e\	-ntem	4g\	-ntem
=69	=69	=69	=69	=69	=69	=69	=69
.	.	.	.	2f\	do-	2a\	do-
.	.	.	.	2e\	.	2g\	.
=70	=70	=70	=70	=70	=70	=70	=70
1r	.	1r	.	2.d\	.	2.f\	.
.	.	.	.	4d\	-mi-	4f\	-mi-
!LO:LB:g=original	!	!	!	!	!	!	!
=71	=71	=71-	=71	=71	=71	=71	=71
2r	.	2r	.	2c\	-ni	2e\	-ni
[2c\	aut	2e\	aut	2c\	aut	2g\	aut
!	!	!	!	!LO:PB:g=original	!	!	!
=72	=72	=72	=72	=72	=72	=72	=72
!	!	!	!	!LO:TX:t=P:problem:skan 4	!	!	!
2c\]	quis	2e\	quis	1d	quis	2f\	quis
[<2B-X\	sta-	2d\	sta-	.	.	2g\	sta-
=73	=73	=73	=73	=73	=73	=73	=73
2B-\]	.	2e\	.	1c	Sta-	2e\	.
[<2A\	.	2c\	.	.	.	2f\	.
!	!	!LO:LB:g=original	!	!	!	!	!
=74	=74	=74	=74	=74	=74	=74	=74
2A\]	.	2d\	.	1B-X	.	2d\	.
[<2G\	.	2B-X\	.	.	.	2e\	.
=75	=75	=75	=75	=75	=75	=75	=75
2G\]	bit	2c\	-bit	2A\	-bit	2c\	-bit
2F\	in	2c\	in	2A\	in	2a\	in
=76	=76	=76	=76	=76	=76	=76	=76
!	!	!	!	!LO:TX:t=P:problem:korekta:wykreślony takt	!	!	!
2F\	lo-	2f\	lo-	2A\	lo-	2a\	lo-
2G\	-co	4e\	.	2B-X\	-co	2g\	-co
.	.	4d\	-co	.	.	.	.
=77	=77	=77	=77	=77	=77	=77	=77
2A\	san-	2c\	San-	2c\	San-	2f\	San-
2B-X\	-cto	4B-X\	.	2d\	-cto	2f\	-cto
.	.	4A\	-cto	.	.	.	.
!LO:LB:g=original	!	!	!	!	!	!	!
=78	=78	=78	=78	=78	=78	=78	=78
!	!	!LO:TX:a:t=P:problem:podwójna kreska taktowa	!	!	!	!	!
1c	e-	1G	e-	1c	e-	(2f\	e-
.	.	.	.	.	.	2e\)	.
=79-	=79	=79	=79	=79	=79	=79	=79
*M3/2	*	*M3/2	*	*M3/2	*	*M3/2	*
2F\	-jus	2A\	-jus	2c\	-jus	2f\	-jus
4F\	in-	4c\	In-	4A\	In-	4a\	In-
4F\	-no-	4c\	-no-	4A\	-no-	4a\	-no-
2F\	-cens	2d\	-cens	2d\	-cens	2b-X\	-cens
=80	=80	=80	=80	=80	=80	=80	=80
2.F\	ma-	2.A\	ma-	2.c\	ma-	2.a\	ma-
4F\	-ni-	4A\	-ni-	4c\	-ni-	4a\	-ni-
2F\	-bus	2B-X\	-bus	2B-X\	-bus	2g\	-bus
!	!	!	!	!LO:LB:g=original	!	!	!
=81	=81	=81	=81	=81	=81	=81	=81
2F\	et	2c\	et	2A\	et	2f\	et
2F\	mun-	2c\	mun-	2A\	mun-	2f\	mun-
2F\	-do	2d\	-do	2d\	-do	2b-X\	-do
!	!	!LO:LB:g=original	!	!	!	!	!
=82	=82	=82	=82	=82	=82	=82	=82
!	!	!LO:TX:t=P:problem:brak taktu	!	!	!	!	!
1F	cor-	1.ryy	.	1c	cor-	1a	cor-
2F\	-de	.	.	2B-X\	-de	2g\	-de
!LO:PB:g=original	!	!	!	!	!	!	!
=83	=83	=83	=83	=83	=83	=83	=83
2F\	et	2.c\	mun-	2.A\	mun-	1f	mun-
2D\	mun-	.	.	.	.	.	.
.	.	4d\	.	4Bn\	.	.	.
2C\	-do	2e\	-do	2c\	-do	2e\	-do
=84	=84	=84	=84	=84	=84	=84	=84
2F\	Cor-	2f\	cor-	8d\L	cor-	2a\	cor-
.	.	.	.	8e\	.	.	.
.	.	.	.	8d\	.	.	.
.	.	.	.	8c\J	.	.	.
2G\	.	1d	.	2c\	.	1g	.
2GG/	.	.	.	2Bn\	.	.	.
=85	=85	=85	=85	=85	=85	=85	=85
1.C	-de.	1.e	-de	1.c	-de	1.g	-de
!	!	!	!	!	!	!LO:LB:g=original	!
=86||	=86||	=86||	=86||	=86||	=86||	=86||	=86||
2C\	Al-	2c\	Al-	2e\	Al-	2g\	Al-
2C\	-le-	2c\	-le-	2e\	-le-	2g\	-le-
2F\	-lu-	2c\	-lu-	2f\	-lu-	2a\	-lu-
=87	=87	=87	=87	=87	=87	=87	=87
2.C\	-ja	1.c	-ja	4e\	-ja	4g\	-ja
.	.	.	.	4f\	.	4a\	.
.	.	.	.	4e\	.	4g\	.
4D\	.	.	.	4d\	.	4f\	.
4E\	.	.	.	2c\	.	2e\	.
4C\	.	.	.	.	.	.	.
!LO:LB:g=original	!	!	!	!LO:LB:g=original	!	!	!
=88	=88	=88	=88	=88	=88	=88	=88
2F\	al-	2f\	al-	4d\	Al-	2a\	al-
.	.	.	.	4c\	.	.	.
2G\	-le-	2d\	-le-	2c\	-le-	2g\	-le-
2G\	-lu-	2d\	-lu-	2Bn\	-lu-	2g\	-lu-
=89	=89	=89	=89	=89	=89	=89	=89
!	!	!LO:TX:a:t=P:problem:skreślona cauda	!	!	!	!	!
1.C	-ja	1.e	-ja	1.c	-ja	1.g	-ja
=90||	=90||	=90||	=90||	=90||	=90||	=90||	=90||
!	!	!LO:N:vis=0	!	!LO:N:vis=0	!	!	!
2C\	A-	0.r	.	0.r	.	2g\	A-
2E\	-ve	.	.	.	.	2g\	-ve
2E\	Ma-	.	.	.	.	2g\	Ma-
=91	=91	=91	=91	=91	=91	=91	=91
1F	-ri-	.	.	.	.	1a	-ri-
2E\	-a	.	.	.	.	2g\	-a
=92	=92	=92	=92	=92	=92	=92	=92
2.D\	gra-	1.r	.	1.r	.	2.f\	gra-
4E\	.	.	.	.	.	4g\	-ti-
4D\	ti-	.	.	.	.	4f\	-a
4C\	-a	.	.	.	.	4e\	.
!LO:LB:g=original	!	!	!	!	!	!	!
=93	=93	=93-	=93	=93-	=93	=93	=93
2BB/	ple-	2r	.	2r	.	2d\	ple-
2GG/	-na	2Bn\	A-	2d\	A-	2d\	-na
2rC	.	2G\	-ve	2B\	-ve	2r	.
!	!	!LO:LB:g=original	!	!	!	!LO:LB:g=original	!
=94	=94	=94	=94	=94	=94	=94	=94
2AA/	Do-	2.f\	Do-	2c\	do-	2a\	Do-
2AA/	-mi-	.	.	2c\	-mi-	2a\	-mi-
.	.	4f\	-mi-	.	.	.	.
2BB/	-nus	2d\	-nus	2d\	-nus	2g\	-n(us)
=95	=95	=95	=95	=95	=95	=95	=95
1C	te-	1c	te-	1e	te-	1g	te-
2C/	-cum	2c\	-cum	2e\	-cum	2g\	-cum
=96	=96	=96	=96	=96	=96	=96	=96
*	*	*	*ij	*	*	*	*
2.D\	Do-	2.B-X\	Do-	2.d\	do-	2.f\	do-
4D\	-mi-	4B-\	-mi-	4d\	-mi-	4f\	-mi-
2E\	-nus	2B-\	-nus	2c\	-nus	2g\	-nus
=97	=97	=97	=97	=97	=97	=97	=97
1F	te-	1A	te-	1c	te-	1a	te-
2F\	-cum	2A\	-cum	2c\	-cum	2a\	-cum
!LO:LB:g=original	!	!	!	!	!	!	!
=98	=98	=98	=98	=98	=98	=98	=98
2.F#X\	Do-	2.A\	Do-	2.d\	do-	2.a\	Do-
4F#\	-mi-	4A\	-mi-	4d\	-mi-	4a\	-mi-
2G\	-nus	2Bn\	-nus	2d\	-nus	2g\	-nus
=99	=99	=99	=99	=99	=99	=99	=99
2C\	te-	2c\	te-	2e\	te-	1g	te-
1D	.	1A	.	1d	.	.	.
.	.	.	.	.	.	2f#X\	.
!	!	!	!	!LO:LB:g=original	!	!	!
=100	=100	=100	=100	=100	=100	=100	=100
2GG/	-cum	4B\	-cum	4d\	-cum	2g\	-cum
*	*	*	*Xij	*	*	*	*
.	.	4B\	a-	4d\	A-	.	.
2rC	.	2B\	-ve	2d\	-ve	2r	.
2rC	.	2B\	Ma-	2d\	Ma-	2r	.
=101	=101	=101	=101	=101	=101	=101	=101
!LO:N:vis=0	!	!	!	!	!	!LO:N:vis=0	!
0.r	.	1c	-ri-	1e	-ri-	0.r	.
.	.	2B\	-a	2d\	-a	.	.
!	!	!LO:LB:g=original	!	!	!	!	!
=102	=102	=102	=102	=102	=102	=102	=102
.	.	2.A\	gra-	2.c\	gra-	.	.
.	.	4Bn\	-ti-	4d\	-ti-	.	.
.	.	4A\	-a	4c\	-a	.	.
.	.	4G\	.	4B\	.	.	.
=103	=103	=103	=103	=103	=103	=103	=103
2r	.	2F#X\	ple-	2A\	ple-	2r	.
2F#X\	a-	2F#\	-na	2A\	-na	2a\	A-
!LO:TX:a:t=P:problem:skreślona kreska taktowa	!	!	!	!	!	!	!
2D\	-ve	2rG	.	2rG	.	2f#X\	-ve
!LO:LB:g=original	!	!	!	!	!	!LO:LB:g=original	!
=104	=104	=104	=104	=104	=104	=104	=104
1E	be-	[2e\	be-	2d\	be-	1g	be-
.	.	2e\]	.	2.c\	.	.	.
2F#X\	-ne-	2d\	-ne-	.	.	2a\	-ne-
.	.	.	.	4d\	-ne-	.	.
=105	=105	=105	=105	=105	=105	=105	=105
2.G\	-di-	2.d\	-di-	2.B\	-di-	2.g\	-di-
4G\	-cta	4d\	-cta	4B\	-cta	4g\	-cta
2G\	tu	2d\	tu	2B\	tu	2g\	tu
=106	=106	=106	=106	=106	=106	=106	=106
2A\	in	2f\	in	2c\	in	2a\	in
2A\	mu-	2f\	mu-	2c\	mu-	2a\	mu-
2B\	-li-	2d\	-li-	2d\	-li-	2g\	-li-
=107	=107	=107	=107	=107	=107	=107	=107
2.c\	-e-	2.c\	-e-	2.e\	-e-	2.g\	-e-
4c\	-ri-	4c\	-ri-	4e\	-ri-	4g\	-ri-
2c\	-bus	2c\	-bus	2e\	-bus	2a\	-bus
!	!	!	!	!LO:LB:g=original	!	!	!
=108	=108	=108	=108	=108	=108	=108	=108
2G#X\	et	2B\	et	2e\	et	2e\	et
2E\	be-	2B\	be-	2e\	be-	2g#X\	be-
2G#\	-ne-	2B\	-ne-	2e\	-ne-	2e\	-ne-
!LO:LB:g=original	!	!	!	!	!	!	!
=109	=109	=109	=109	=109	=109	=109	=109
1A	-di-	1c	-di-	1e	-di-	1a	-di-
2F\	-ctus	2d\	-ctus	2f\	-ctus	2a\	-ctuſ
!	!	!LO:LB:g=original	!	!	!	!	!
=110	=110	=110	=110	=110	=110	=110	=110
1Gn	fru-	2B\	fru-	1d	fru-	1gn	fru-
.	.	1B	-ctus	.	.	.	.
2F\	-ctus	.	.	2d\	-ct(us)	2g\	-ctus
=111	=111	=111	=111	=111	=111	=111	=111
*	*	*	*ij	*	*ij	*	*
2.E\	ven-	2.c\	fru-	2.c\	fru-	2.g\	.
4D\	.	4c\	-ctus	4d\	-cus	4f\	.
*	*	*	*Xij	*	*Xij	*	*
2C\	-tris	2c\	ven-	2e\	ven-	2e\	Ven-
!	!	!	!	!	!	!LO:LB:g=original	!
=112	=112	=112	=112	=112	=112	=112	=112
2F\	tu-	4d\	.	2f\	-triſ	2a\	-triſ
.	.	4c\	-triſ	.	.	.	.
1G	.	2c\	tu-	1d	tu-	1g	tu-
.	.	2B\	.	.	.	.	.
=113	=113	=113	=113	=113	=113	=113	=113
2C\	-i	2c\	-i	2c\	-i	2g\	-i
2C\	al-	2c\	al-	2e\	al-	2g\	Al-
2F\	-le-	2c\	-le-	2f\	-le-	2a\	-le-
=114	=114	=114	=114	=114	=114	=114	=114
2.C\	-lu-	1c	-lu-	4e\	-lu-	4g\	-lu-
.	.	.	.	4f\	.	4a\	.
.	.	.	.	4e\	.	4g\	.
4D\	.	.	.	4d\	.	4f\	.
4E\	.	2c\	-ja	2c\	-ja	2e\	-ja
4C\	-ja	.	.	.	.	.	.
!LO:LB:g=original	!	!	!	!	!	!	!
=115	=115	=115	=115	=115	=115	=115	=115
2F\	al-	2f\	al-	4d\	al-	2a\	al-
.	.	.	.	4c\	.	.	.
2G\	-le-	2.d\	-le-	2c\	-le-	2g\	-le-
2GG/	-lu-	.	.	2B\	-lu-	2g\	-lu-
.	.	4d\	-lu-	.	.	.	.
=116	=116	=116	=116	=116	=116	=116	=116
!	!	!LO:TX:a:t=P:problem:skreślona cauda	!	!	!	!	!
1.C	-ja.	1.e	-ja.	1.c	-ja	1.g	-ja
==	==	==	==	==	==	==	==
*-	*-	*-	*-	*-	*-	*-	*-
!!!system-decoration: [(s1,s2,s3,s4)]
!!!RDF**kern: < = below
!!!ENC: Marta Lawrence
!!!END: 2021-01-22
!!!ENC: Krzysztof Stępień
!!!END: 2021-01-20
